X:820
T:Robertson's
R:Hornpipe
B:The Athole Collection
M:C|
L:1/8
K:B_
bf|d2 (B2 B2) dB|cA F2 F2 BA|GFED EGFE|D2 B,2 B,2 bf|d2 (B2 B2) bf|
g2 =e2 c2 BA|Bcd=e fage|f2 F2 F2:|
|:fe|dB ~B2 dB ~B2|GE ~E2 GE ~E2|cdeg fdcB|A2 F2 F2 de|fBAB gBAB|
bBAB fBAB|Ggfe dcBA|B2 B,2 B,2:|

